;FLAVOR:Marlin
;TIME:1449
;Filament used: 1.42123m
;Layer height: 0.28
;MINX:96.5
;MINY:96.5
;MINZ:0.28
;MAXX:138.5
;MAXY:138.5
;MAXZ:19.88
;Generated with Cura_SteamEngine main
M140 S50
M105
M190 S50
M104 S200
M105
M109 S200
M82 ;absolute extrusion mode
; Script based on an original created by tjjfvi (https://github.com/tjjfvi)
; An up-to-date version of the tjjfvi's original script can be found
; here:  https://csi.t6.fyi/
; Note - This script will only work in Cura V4.2 and above!
; --- Global Settings
; layer_height = 0.28
; smooth_spiralized_contours = True
; magic_mesh_surface_mode = normal
; machine_extruder_count = 1
; --- Single Extruder Settings
; speed_z_hop = 5
; retraction_amount = 5
; retraction_hop = 0.2
; retraction_hop_enabled = False
; retraction_enable = True
; retraction_speed = 45
; retraction_retract_speed = 45
; retraction_prime_speed = 45
; speed_travel = 150.0
; Ender 3 Custom Start G-code
G92 E0 ; Reset Extruder
G28 ; Home all axes
G92 E0 ; Reset Extruder
G1 Z2.0 F3000 ; Move Z Axis up little to prevent scratching of Heat Bed
G1 X5 Y20 Z0.3 F5000.0 ; Move over to prevent blob squish
G92 E0
G92 E0
G1 F2700 E-5
;LAYER_COUNT:71
;LAYER:0
M107
G0 F6000 X99.698 Y99.764 Z0.28
G0 X96.501 Y108.025
;TYPE:SKIRT
G1 F2700 E0
G1 F1200 X96.51 Y107.36 E0.03097
G1 X96.563 Y106.424 E0.07462
G1 X96.695 Y105.495 E0.11831
G1 X96.906 Y104.581 E0.16199
G1 X97.194 Y103.689 E0.20564
G1 X97.557 Y102.824 E0.24932
G1 X97.992 Y101.993 E0.293
G1 X98.496 Y101.203 E0.33663
G1 X99.066 Y100.458 E0.38031
G1 X99.698 Y99.764 E0.42402
G1 X100.386 Y99.127 E0.46768
G1 X101.126 Y98.551 E0.51134
G1 X101.912 Y98.039 E0.55502
G1 X102.739 Y97.597 E0.59869
G1 X103.601 Y97.227 E0.64237
G1 X104.491 Y96.931 E0.68604
G1 X105.403 Y96.713 E0.7297
G1 X106.33 Y96.572 E0.77336
G1 X107.201 Y96.513 E0.81401
G1 X107.83 Y96.5 E0.84331
G1 X126.951 Y96.501 E1.73366
G1 X127.649 Y96.511 E1.76617
G1 X128.585 Y96.565 E1.80982
G1 X129.513 Y96.697 E1.85347
G1 X130.427 Y96.909 E1.89716
G1 X131.319 Y97.198 E1.94082
G1 X132.184 Y97.561 E1.9845
G1 X133.014 Y97.997 E2.02816
G1 X133.805 Y98.502 E2.07186
G1 X134.549 Y99.073 E2.11553
G1 X135.242 Y99.705 E2.1592
G1 X135.879 Y100.393 E2.20286
G1 X136.454 Y101.134 E2.24653
G1 X136.965 Y101.92 E2.29019
G1 X137.407 Y102.748 E2.33389
G1 X137.776 Y103.61 E2.37755
G1 X138.071 Y104.5 E2.42121
G1 X138.289 Y105.412 E2.46488
G1 X138.429 Y106.34 E2.50858
G1 X138.487 Y107.201 E2.54876
G1 X138.5 Y107.83 E2.57805
G1 X138.499 Y126.9 E3.46603
G1 X138.49 Y127.627 E3.49989
G1 X138.439 Y128.564 E3.54358
G1 X138.307 Y129.492 E3.58723
G1 X138.098 Y130.406 E3.63089
G1 X137.811 Y131.299 E3.67456
G1 X137.449 Y132.165 E3.71827
G1 X137.015 Y132.996 E3.76192
G1 X136.511 Y133.787 E3.8056
G1 X135.942 Y134.532 E3.84925
G1 X135.311 Y135.227 E3.89296
G1 X134.624 Y135.865 E3.93662
G1 X133.885 Y136.442 E3.98027
G1 X133.099 Y136.954 E4.02395
G1 X132.273 Y137.397 E4.0676
G1 X131.411 Y137.769 E4.11131
G1 X130.522 Y138.065 E4.15494
G1 X129.61 Y138.285 E4.19863
G1 X128.683 Y138.426 E4.24229
G1 X127.799 Y138.487 E4.28355
G1 X127.17 Y138.5 E4.31285
G1 X108.065 Y138.499 E5.20245
G1 X107.367 Y138.49 E5.23496
G1 X106.431 Y138.438 E5.27861
G1 X105.502 Y138.306 E5.3223
G1 X104.588 Y138.096 E5.36597
G1 X103.695 Y137.809 E5.40965
G1 X102.83 Y137.446 E5.45333
G1 X101.999 Y137.012 E5.49698
G1 X101.208 Y136.508 E5.54066
G1 X100.463 Y135.938 E5.58434
G1 X99.769 Y135.307 E5.62801
G1 X99.132 Y134.62 E5.67164
G1 X98.555 Y133.88 E5.71533
G1 X98.043 Y133.094 E5.75901
G1 X97.6 Y132.267 E5.8027
G1 X97.229 Y131.406 E5.84635
G1 X96.933 Y130.516 E5.89003
G1 X96.714 Y129.604 E5.9337
G1 X96.573 Y128.677 E5.97736
G1 X96.513 Y127.788 E6.01885
G1 X96.5 Y127.158 E6.04819
G1 X96.501 Y108.025 E6.93911
G0 F6000 X96.901 Y108.031
G1 F1200 X96.91 Y107.366 E6.97007
G1 X96.962 Y106.446 E7.01298
G1 X97.094 Y105.535 E7.05584
G1 X97.305 Y104.639 E7.09871
G1 X97.592 Y103.764 E7.14159
G1 X97.955 Y102.918 E7.18445
G1 X98.389 Y102.106 E7.22732
G1 X98.892 Y101.335 E7.27019
G1 X99.461 Y100.611 E7.31307
G1 X100.089 Y99.939 E7.3559
G1 X100.774 Y99.323 E7.39879
G1 X101.51 Y98.77 E7.44166
G1 X102.291 Y98.282 E7.48454
G1 X103.111 Y97.864 E7.5274
G1 X103.965 Y97.519 E7.57029
G1 X104.845 Y97.249 E7.61315
G1 X105.745 Y97.057 E7.656
G1 X106.659 Y96.943 E7.69889
G1 X107.212 Y96.913 E7.72468
G1 X107.83 Y96.9 E7.75346
G1 X126.793 Y96.9 E8.63646
G1 X127.643 Y96.911 E8.67604
G1 X128.562 Y96.964 E8.7189
G1 X129.473 Y97.097 E8.76177
G1 X130.369 Y97.308 E8.80464
G1 X131.243 Y97.596 E8.84749
G1 X132.09 Y97.959 E8.89039
G1 X132.901 Y98.394 E8.93325
G1 X133.671 Y98.898 E8.9761
G1 X134.395 Y99.467 E9.01898
G1 X135.067 Y100.097 E9.06187
G1 X135.682 Y100.782 E9.10474
G1 X136.235 Y101.518 E9.1476
G1 X136.722 Y102.299 E9.19046
G1 X137.139 Y103.12 E9.23334
G1 X137.484 Y103.974 E9.27623
G1 X137.753 Y104.854 E9.31907
G1 X137.945 Y105.755 E9.36197
G1 X138.058 Y106.668 E9.40481
G1 X138.087 Y107.212 E9.43017
G1 X138.1 Y107.83 E9.45896
G1 X138.099 Y126.895 E10.3467
G1 X138.09 Y127.622 E10.38056
G1 X138.039 Y128.541 E10.42342
G1 X137.908 Y129.453 E10.46632
G1 X137.698 Y130.349 E10.50917
G1 X137.412 Y131.224 E10.55204
G1 X137.051 Y132.071 E10.59491
G1 X136.617 Y132.883 E10.63778
G1 X136.115 Y133.655 E10.68066
G1 X135.547 Y134.38 E10.72355
G1 X134.919 Y135.053 E10.76641
G1 X134.235 Y135.669 E10.80927
G1 X133.5 Y136.223 E10.85213
G1 X132.72 Y136.712 E10.895
G1 X131.9 Y137.131 E10.93787
G1 X131.047 Y137.477 E10.98074
G1 X130.167 Y137.748 E11.02361
G1 X129.267 Y137.941 E11.06647
G1 X128.353 Y138.056 E11.10937
G1 X127.788 Y138.087 E11.13572
G1 X127.17 Y138.1 E11.1645
G1 X108.07 Y138.099 E12.05388
G1 X107.372 Y138.09 E12.08638
G1 X106.453 Y138.038 E12.12924
G1 X105.542 Y137.907 E12.1721
G1 X104.646 Y137.697 E12.21495
G1 X103.771 Y137.41 E12.25783
G1 X102.924 Y137.048 E12.30072
G1 X102.112 Y136.614 E12.34359
G1 X101.341 Y136.112 E12.38643
G1 X100.616 Y135.544 E12.42932
G1 X99.943 Y134.915 E12.47221
G1 X99.328 Y134.231 E12.51504
G1 X98.774 Y133.496 E12.5579
G1 X98.286 Y132.715 E12.60078
G1 X97.867 Y131.895 E12.64366
G1 X97.521 Y131.042 E12.68652
G1 X97.251 Y130.162 E12.72938
G1 X97.058 Y129.261 E12.77229
G1 X96.944 Y128.348 E12.81513
G1 X96.913 Y127.777 E12.84176
G1 X96.9 Y127.158 E12.87059
G1 X96.901 Y108.031 E13.76122
G0 F6000 X97.301 Y108.036
G1 F1200 X97.31 Y107.371 E13.79219
G1 X97.362 Y106.469 E13.83426
G1 X97.494 Y105.576 E13.8763
G1 X97.704 Y104.698 E13.91833
G1 X97.991 Y103.841 E13.96042
G1 X98.353 Y103.014 E14.00245
G1 X98.786 Y102.222 E14.04448
G1 X99.288 Y101.471 E14.08655
G1 X99.855 Y100.767 E14.12864
G1 X100.481 Y100.117 E14.17066
G1 X101.162 Y99.524 E14.21271
G1 X101.894 Y98.994 E14.25479
G1 X102.669 Y98.531 E14.29682
G1 X103.482 Y98.138 E14.33887
G1 X104.327 Y97.818 E14.38095
G1 X105.196 Y97.575 E14.42296
G1 X106.084 Y97.409 E14.46503
G1 X107.223 Y97.313 E14.51825
G1 X107.83 Y97.3 E14.54652
G1 X126.793 Y97.3 E15.42952
G1 X127.637 Y97.311 E15.46882
G1 X128.539 Y97.364 E15.5109
G1 X129.432 Y97.496 E15.55293
G1 X130.31 Y97.707 E15.59498
G1 X131.166 Y97.995 E15.63703
G1 X131.993 Y98.357 E15.67907
G1 X132.785 Y98.792 E15.72114
G1 X133.536 Y99.294 E15.76321
G1 X134.239 Y99.861 E15.80526
G1 X134.889 Y100.488 E15.84731
G1 X135.481 Y101.17 E15.88937
G1 X136.011 Y101.901 E15.93141
G1 X136.473 Y102.677 E15.97346
G1 X136.866 Y103.49 E16.01551
G1 X137.184 Y104.335 E16.05755
G1 X137.427 Y105.205 E16.09961
G1 X137.592 Y106.093 E16.14167
G1 X137.687 Y107.223 E16.19447
G1 X137.7 Y107.83 E16.22274
G1 X137.699 Y126.89 E17.11026
G1 X137.69 Y127.617 E17.14411
G1 X137.639 Y128.519 E17.18618
G1 X137.508 Y129.413 E17.22825
G1 X137.299 Y130.291 E17.27028
G1 X137.013 Y131.148 E17.31235
G1 X136.652 Y131.976 E17.35441
G1 X136.22 Y132.768 E17.39642
G1 X135.719 Y133.52 E17.43849
G1 X135.153 Y134.224 E17.48055
G1 X134.528 Y134.875 E17.52258
G1 X133.847 Y135.469 E17.56465
G1 X133.116 Y136 E17.60672
G1 X132.342 Y136.464 E17.64875
G1 X131.529 Y136.858 E17.69081
G1 X130.685 Y137.178 E17.73284
G1 X129.815 Y137.423 E17.77493
G1 X128.928 Y137.589 E17.81695
G1 X127.777 Y137.687 E17.87074
G1 X127.17 Y137.7 E17.89901
G1 X108.075 Y137.699 E18.78815
G1 X107.377 Y137.69 E18.82066
G1 X106.476 Y137.639 E18.86268
G1 X105.582 Y137.507 E18.90476
G1 X104.704 Y137.298 E18.94678
G1 X103.847 Y137.011 E18.98887
G1 X103.02 Y136.65 E19.03089
G1 X102.227 Y136.217 E19.07296
G1 X101.476 Y135.716 E19.11499
G1 X100.772 Y135.15 E19.15706
G1 X100.121 Y134.524 E19.19911
G1 X99.528 Y133.843 E19.24116
G1 X98.998 Y133.112 E19.2832
G1 X98.534 Y132.337 E19.32526
G1 X98.14 Y131.524 E19.36733
G1 X97.82 Y130.68 E19.40936
G1 X97.576 Y129.81 E19.45143
G1 X97.41 Y128.922 E19.4935
G1 X97.313 Y127.767 E19.54747
G1 X97.3 Y127.158 E19.57583
G1 X97.301 Y108.036 E20.46624
G1 F2700 E15.46624
;MESH:xyzCalibration_cube.stl
G0 F6000 X106.835 Y108.036
G0 X108.1 Y126.9
;TYPE:WALL-INNER
G1 F2700 E20.46624
G1 F1200 X126.9 Y126.9 E21.34164
G1 X126.9 Y117.5 E21.77935
G1 X126.9 Y108.1 E22.21705
G1 X108.1 Y108.1 E23.09246
G1 X108.1 Y126.9 E23.96786
G0 F6000 X107.7 Y127.3
;TYPE:WALL-OUTER
G1 F1200 X127.3 Y127.3 E24.88052
G1 X127.3 Y117.5 E25.33685
G1 X127.3 Y107.7 E25.79318
G1 X107.7 Y107.7 E26.70584
G1 X107.7 Y127.3 E27.61849
G0 F6000 X107.97 Y127.03
G0 X108.2 Y126.54
G0 X108.46 Y126.54
;TYPE:SKIN
G1 F1200 X126.54 Y126.54 E28.46038
G1 X126.54 Y117.5 E28.88132
G1 X126.54 Y108.46 E29.30226
G1 X108.46 Y108.46 E30.14414
G1 X108.46 Y126.54 E30.98602
G0 F6000 X108.803 Y126.339
G1 F1200 X108.659 Y126.195 E30.9955
G0 F6000 X108.659 Y125.63
G1 F1200 X109.368 Y126.339 E31.04219
G0 F6000 X109.934 Y126.339
G1 F1200 X108.659 Y125.064 E31.12615
G0 F6000 X108.659 Y124.498
G1 F1200 X110.5 Y126.339 E31.24738
G0 F6000 X111.065 Y126.339
G1 F1200 X108.659 Y123.933 E31.40582
G0 F6000 X108.659 Y123.367
G1 F1200 X111.631 Y126.339 E31.60153
G0 F6000 X112.197 Y126.339
G1 F1200 X108.659 Y122.801 E31.83452
G0 F6000 X108.659 Y122.236
G1 F1200 X112.763 Y126.339 E32.10474
G0 F6000 X113.328 Y126.339
G1 F1200 X108.659 Y121.67 E32.4122
G0 F6000 X108.659 Y121.104
G1 F1200 X113.894 Y126.339 E32.75693
G0 F6000 X114.46 Y126.339
G1 F1200 X108.659 Y120.539 E33.13891
G0 F6000 X108.659 Y119.973
G1 F1200 X115.025 Y126.339 E33.55812
G0 F6000 X115.591 Y126.339
G1 F1200 X108.659 Y119.407 E34.0146
G0 F6000 X108.659 Y118.842
G1 F1200 X116.157 Y126.339 E34.50833
G0 F6000 X116.722 Y126.339
G1 F1200 X108.659 Y118.276 E35.03929
G0 F6000 X108.659 Y117.71
G1 F1200 X117.288 Y126.339 E35.60752
G0 F6000 X117.854 Y126.339
G1 F1200 X108.659 Y117.144 E36.21303
G0 F6000 X108.659 Y116.579
G1 F1200 X118.419 Y126.339 E36.85574
G0 F6000 X118.985 Y126.339
G1 F1200 X108.659 Y116.013 E37.53573
G0 F6000 X108.659 Y115.447
G1 F1200 X119.551 Y126.339 E38.25298
G0 F6000 X120.116 Y126.339
G1 F1200 X108.659 Y114.882 E39.00745
G0 F6000 X108.659 Y114.316
G1 F1200 X120.682 Y126.339 E39.79918
G0 F6000 X121.248 Y126.339
G1 F1200 X108.659 Y113.75 E40.62819
G0 F6000 X108.659 Y113.185
G1 F1200 X121.813 Y126.339 E41.4944
G0 F6000 X122.379 Y126.339
G1 F1200 X108.659 Y112.619 E42.39789
G0 F6000 X108.659 Y112.053
G1 F1200 X122.945 Y126.339 E43.33864
G0 F6000 X123.511 Y126.339
G1 F1200 X108.659 Y111.488 E44.31664
G0 F6000 X108.659 Y110.922
G1 F1200 X124.076 Y126.339 E45.33188
G0 F6000 X124.642 Y126.339
G1 F1200 X108.659 Y110.356 E46.38438
G0 F6000 X108.659 Y109.791
G1 F1200 X125.208 Y126.339 E47.47413
G0 F6000 X125.773 Y126.339
G1 F1200 X108.659 Y109.225 E48.60112
G0 F6000 X108.659 Y108.659
G1 F1200 X126.339 Y126.339 E49.76538
G0 F6000 X126.339 Y125.773
G1 F1200 X109.226 Y108.66 E50.8923
G0 F6000 X109.791 Y108.66
G1 F1200 X126.339 Y125.208 E51.98201
G0 F6000 X126.339 Y124.642
G1 F1200 X110.357 Y108.66 E53.03445
G0 F6000 X110.923 Y108.66
G1 F1200 X126.339 Y124.076 E54.04962
G0 F6000 X126.339 Y123.511
G1 F1200 X111.488 Y108.66 E55.02759
G0 F6000 X112.054 Y108.66
G1 F1200 X126.339 Y122.945 E55.96828
G0 F6000 X126.339 Y122.379
G1 F1200 X112.62 Y108.66 E56.8717
G0 F6000 X113.185 Y108.66
G1 F1200 X126.339 Y121.813 E57.73788
G0 F6000 X126.339 Y121.248
G1 F1200 X113.751 Y108.66 E58.56682
G0 F6000 X114.317 Y108.66
G1 F1200 X126.339 Y120.682 E59.35849
G0 F6000 X126.339 Y120.116
G1 F1200 X114.882 Y108.66 E60.11292
G0 F6000 X115.448 Y108.66
G1 F1200 X126.339 Y119.551 E60.83011
G0 F6000 X126.339 Y118.985
G1 F1200 X116.014 Y108.66 E61.51003
G0 F6000 X116.579 Y108.66
G1 F1200 X126.339 Y118.419 E62.15271
G0 F6000 X126.339 Y117.854
G1 F1200 X117.145 Y108.66 E62.75815
G0 F6000 X117.711 Y108.66
G1 F1200 X126.339 Y117.288 E63.32632
G0 F6000 X126.339 Y116.722
G1 F1200 X118.277 Y108.66 E63.85721
G0 F6000 X118.842 Y108.66
G1 F1200 X126.339 Y116.157 E64.3509
G0 F6000 X126.339 Y115.591
G1 F1200 X119.408 Y108.66 E64.80732
G0 F6000 X119.974 Y108.66
G1 F1200 X126.339 Y115.025 E65.22647
G0 F6000 X126.339 Y114.46
G1 F1200 X120.539 Y108.66 E65.60841
G0 F6000 X121.105 Y108.66
G1 F1200 X126.339 Y113.894 E65.95308
G0 F6000 X126.339 Y113.328
G1 F1200 X121.671 Y108.66 E66.26047
G0 F6000 X122.236 Y108.66
G1 F1200 X126.339 Y112.763 E66.53066
G0 F6000 X126.339 Y112.197
G1 F1200 X122.802 Y108.66 E66.76358
G0 F6000 X123.368 Y108.66
G1 F1200 X126.339 Y111.631 E66.95922
G0 F6000 X126.339 Y111.065
G1 F1200 X123.933 Y108.66 E67.11763
G0 F6000 X124.499 Y108.66
G1 F1200 X126.339 Y110.5 E67.2388
G0 F6000 X126.339 Y109.934
G1 F1200 X125.065 Y108.66 E67.32269
G0 F6000 X125.63 Y108.66
G1 F1200 X126.339 Y109.368 E67.36935
G0 F6000 X126.339 Y108.803
G1 F1200 X126.196 Y108.66 E67.37877
G1 F2700 E62.37877
;MESH:NONMESH
G0 F300 X126.196 Y108.66 Z0.56
G0 F6000 X126.196 Y108.2
G0 X108.272 Y108.272
G0 X108.1 Y126.9
;TIME_ELAPSED:83.899175
;LAYER:1
M106 S85
;TYPE:WALL-INNER
;MESH:xyzCalibration_cube.stl
G1 F2700 E67.37877
G1 F1350 X126.9 Y126.9 E68.25417
G1 X126.9 Y117.5 E68.69188
G1 X126.9 Y108.1 E69.12958
G1 X108.1 Y108.1 E70.00499
G1 X108.1 Y126.9 E70.88039
G0 F7500 X107.7 Y127.3
;TYPE:WALL-OUTER
G1 F1350 X127.3 Y127.3 E71.79305
G1 X127.3 Y117.5 E72.24938
G1 X127.3 Y107.7 E72.70571
G1 X107.7 Y107.7 E73.61837
G1 X107.7 Y127.3 E74.53102
G0 F7500 X107.97 Y127.03
G0 X108.2 Y126.54
G0 X108.46 Y126.54
;TYPE:SKIN
G1 F1350 X126.54 Y126.54 E75.37291
G1 X126.54 Y117.5 E75.79385
G1 X126.54 Y108.46 E76.21479
G1 X108.46 Y108.46 E77.05667
G1 X108.46 Y126.54 E77.89855
G0 F7500 X108.2 Y126.54
G0 X108.2 Y109.128
G0 X108.66 Y109.128
G1 F1350 X109.129 Y108.659 E77.92943
G0 F7500 X109.694 Y108.659
G1 F1350 X108.66 Y109.694 E77.99756
G0 F7500 X108.66 Y110.259
G1 F1350 X110.26 Y108.659 E78.10292
G0 F7500 X110.826 Y108.659
G1 F1350 X108.66 Y110.825 E78.24555
G0 F7500 X108.66 Y111.391
G1 F1350 X111.391 Y108.659 E78.42543
G0 F7500 X111.957 Y108.659
G1 F1350 X108.66 Y111.956 E78.64254
G0 F7500 X108.66 Y112.522
G1 F1350 X112.523 Y108.659 E78.89692
G0 F7500 X113.089 Y108.659
G1 F1350 X108.66 Y113.088 E79.18858
G0 F7500 X108.66 Y113.653
G1 F1350 X113.654 Y108.659 E79.51745
G0 F7500 X114.22 Y108.659
G1 F1350 X108.66 Y114.219 E79.88358
G0 F7500 X108.66 Y114.785
G1 F1350 X114.786 Y108.659 E80.28699
G0 F7500 X115.351 Y108.659
G1 F1350 X108.66 Y115.351 E80.72764
G0 F7500 X108.66 Y115.916
G1 F1350 X115.917 Y108.659 E81.20552
G0 F7500 X116.483 Y108.659
G1 F1350 X108.66 Y116.482 E81.72068
G0 F7500 X108.66 Y117.048
G1 F1350 X117.048 Y108.659 E82.27308
G0 F7500 X117.614 Y108.659
G1 F1350 X108.66 Y117.613 E82.86271
G0 F7500 X108.66 Y118.179
G1 F1350 X118.18 Y108.659 E83.48962
G0 F7500 X118.745 Y108.659
G1 F1350 X108.66 Y118.745 E84.15377
G0 F7500 X108.66 Y119.31
G1 F1350 X119.311 Y108.659 E84.85515
G0 F7500 X119.877 Y108.659
G1 F1350 X108.66 Y119.876 E85.59381
G0 F7500 X108.66 Y120.442
G1 F1350 X120.442 Y108.659 E86.36971
G0 F7500 X121.008 Y108.659
G1 F1350 X108.66 Y121.007 E87.18285
G0 F7500 X108.66 Y121.573
G1 F1350 X121.574 Y108.659 E88.03326
G0 F7500 X122.139 Y108.659
G1 F1350 X108.66 Y122.139 E88.9209
G0 F7500 X108.66 Y122.704
G1 F1350 X122.705 Y108.659 E89.84579
G0 F7500 X123.271 Y108.659
G1 F1350 X108.66 Y123.27 E90.80795
G0 F7500 X108.66 Y123.836
G1 F1350 X123.837 Y108.659 E91.80738
G0 F7500 X124.402 Y108.659
G1 F1350 X108.66 Y124.402 E92.84405
G0 F7500 X108.66 Y124.967
G1 F1350 X124.968 Y108.659 E93.91796
G0 F7500 X125.534 Y108.659
